!!!OTL: Mudan kaihua wanlihong
!!!ARE: Asia, China,ÿNingxia Guyuan
!! I, 174
!!!SCT: C1839
!!!YEM: Copyright 1995, estate of Helmut Schaffrath.
**kern
*ICvox
*Ivox
!! Mixed meters:  2/4; 3/4
*M3/4
*k[f#c#]
*D:
{8e
4e
16e
16f#
=1
8a
16b
16a
8g
8e
=2
8b
8a
8g
8e
=3
4e
8a
8b}
=4
{8ee
8ff#
8ee
8dd
=5
8b
8dd
8b
8a
=6
8b
8a
8g
4.e
=7
*M2/4
2e}
=8
{8b
8a
8g
8e
=9
4e
8a
8b
=10
8ee
8ff#
8ee
8dd
=11
8b
8dd
8b
8a
=12
*M3/4
8b
8a
8g
4.e
=13
2e}
==
!!!AGN: Shange
!! Hui
!!!ONB: ESAC (Essen Associative Code) Database: SENGANSU
!!!AMT: irregular
!!!AIN: vox
!!!EED: Helmut Schaffrath
!!!EEV: 1.0
*-
